X:1
T:Sturmbeschwörung
T:Johannes Dürrner
T:Johannes Daniel Falk
T:Sturmbeschwörung
T:CPDL - Creative Commons Attribution Non Commercial 3.0
T:CPDL - Creative Commons Attribution Non Commercial 3.0
C:Johannes Dürrner
Z:Johannes Daniel Falk
Z:CPDL - Creative Commons Attribution Non Commercial 3.0
%%score [ ( 1 2 ) ( 3 4 ) ]
L:1/8
Q:1/4=90
M:3/4
K:F
V:1 treble-8 nm="Tenor"
V:2 treble-8 
V:3 bass nm="Bass"
V:4 bass 
V:1
"^Etwas bewegt" z2 | z6 | z6 | z6 | z4 |!f! f>f | !>!e2 A2 f>f | !>!e2!<(! ^cd e!<)!f | g4 g2 | %9
w: |||||Nir- gends|Ret- tung, nir- gends|Land, vor * des *|Stur- mes|
w: |||||Wenn des|Schiff- leins Ru- der|bricht, wo * dann *|Ret- tung|
w: |||||las- sen,|gro- ßer Schöp- fer,|dir un- * ser *|Lob er-|
 !>!g2 !wedge!A2 !fermata!z2 ||[K:D][Q:1/4=80]"^Etwas langsamer" z6 |!mf!!<(! d3 d d2 | %12
w: Schlä- gen.||ei- ner ist,|
w: fin- den?||wo sonst, als|
w: schal- len!||lo- bet ihn|
 d2!<)! d2 e2 | f6 |!mf! z6 | g3!<(! g f2 | e2 d2!<)! e2 | f4"^Soli" z2 | z6 | z4!pp!"^Tutti" F2 | %20
w: der in der|Nacht,||Ei- ner ist,|der uns be-|wacht,||Christ,|
w: nur bei dem|Herrn!||seht ihr nicht|den A- bend-|stern?|||
w: mit Herz und|Mund!||lo- bet ihn|zu je- der|Stund',|||
 f4 d2 | c4!p! f2 |!<(! (f2 d2 e2 | f2!<)! a2) d2 |!f! f6- | f2- f2!>(! e2 | !fermata!d4!>)! z2 |] %27
w: Ky- ri-|e! Komm,|komm _ _|_ _ zu|uns|_ _ die|See!|
w: |* Er-|schein _ _|_ _ uns|auf|_ _ der|See!|
w: |* Ja|dir _ _|_ _ ge-|horcht|_ _ die|See!|
V:2
 x2 | x6 | x6 | x6 | x4 | d>d | ^c2 A2 d>d | ^c2 A=B cd | e4 e2 | e2 A2 x2 ||[K:D] x6 | A3 A A2 | %12
w: ||||||||||||
w: ||||||||||||
w: ||||||||||||
 B2 B2 c2 | d6 | d3 d d2 | d3 d d2 | B2 B2 B2 | c4 x2 | x6 | x4 F2 | d4 B2 | ^A4 F2 | (d2 =A2 c2 | %23
w: ||Ei- ner ist,|||||||||
w: ||Seht ihr nicht,|||||||||
w: ||Lo- bet ihn,|||||||||
 d2 e2) d2 | d6- | d2- d2 c2 | A4 x2 |] %27
w: ||* auf *||
w: ||||
w: ||||
V:3
!f! A,A, | D2 A,2 A,=B, | C4 G,A, | _B,A, (G,F,E,D, | ^C,E,) A,2 |!f! ^G,>G, | !>!A,2 A,,2 ^G,>G, | %7
w: 1.~Wie mit|grimm'- gem Un- ver-|stand Wel- len|sich be- we- * * *|* * gen!|||
w: 2.~Wie vor|un- serm An- ge-|sicht Mond und|Ster- ne schwin- * * *|* * den!|||
w: 3.~Nach dem|Stur- me fah- ren|wir si- cher|durch die Wel- * * *|* * len,|||
 !>!A,2 A,2 A,2 | (_B,2 E2) D2 | !>!^C2 !wedge!A,2 !fermata!z2 ||[K:D]!mf! A,3 A,- A,2 | %11
w: |||Ei- ner ist,|
w: |||Wo sonst, _|
w: |||Lo- bet ihn,|
 F,3 F, F,2 | F,2 F,2 A,2 | A,6 | z6 | B,3 B, A,2 | G,2 B,2 B,2 | ^A,4!p! F,2 | C4 ^A,2 | %19
w: ||||||* 1\-3.~Christ,|Ky- ri-|
w: _ _ _||||||||
w: ||||||||
 F,4!pp! F,2 | F,4 F,2 | F,4!p! F,2 | (=A,2 F,2 A,2 | D2 C2) B,2 |!f! A,6- | A,2- A,2 G,2 | %26
w: e! *|||||||
w: |||||||
w: |||||||
 !fermata!F,4 z2 |] %27
w: |
w: |
w: |
V:4
 A,A, | D2 A,2 A,=B, | C4 G,A, | B,A, G,F,E,D, | ^C,E, A,2 | ^G,>G, | A,2 A,,2 ^G,>G, | %7
 A,2 A,2 A,2 | B,4 B,2 | A,2 A,,2 x2 ||[K:D] z6 | D,3 D, D,2 | B,,2 B,,2 A,,2 | D,6 | x6 | %15
 B,3 B, A,2 | G,2 G,2 G,2 | F,4 z2 | z6 | z4 F,2 | B,,4 D,2 | F,4 F,2 | (D,6 | D,4) D,2 | %24
 (D,2 C,2 B,,2 | A,,2-) A,,2 A,,2 | D,4 x2 |] %27

